icons/map-pin-add-line.svg

<svg xmlns="http://www.w3.org/2000/svg" width="24" height="24" fill="none"><g clip-path="url(#a)"><g><path fill="#121212" d="M12 20.9L16.95 15.95C17.9289 14.971 18.5955 13.7237 18.8656 12.3659C19.1356 11.008 18.9969 9.60058 18.4671 8.32154C17.9373 7.0425 17.04 5.94929 15.8889 5.18015C14.7378 4.41101 13.3844 4.00049 12 4.00049C10.6156 4.00049 9.26222 4.41101 8.11109 5.18015C6.95996 5.94929 6.06275 7.0425 5.53292 8.32154C5.00308 9.60058 4.86442 11.008 5.13445 12.3659C5.40449 13.7237 6.07111 14.971 7.05 15.95L12 20.9ZM12 23.728L5.636 17.364C4.37734 16.1053 3.52019 14.5017 3.17293 12.7558C2.82567 11.01 3.00391 9.20041 3.6851 7.55588C4.36629 5.91136 5.51984 4.50575 6.99988 3.51683C8.47992 2.5279 10.22 2.00006 12 2.00006C13.78 2.00006 15.5201 2.5279 17.0001 3.51683C18.4802 4.50575 19.6337 5.91136 20.3149 7.55588C20.9961 9.20041 21.1743 11.01 20.8271 12.7558C20.4798 14.5017 19.6227 16.1053 18.364 17.364L12 23.728ZM11 9.99998V6.99998H13V9.99998H16V12H13V15H11V12H8V9.99998H11Z"/></g></g><defs><clipPath id="a"><rect width="24" height="24" fill="white"/></clipPath></defs></svg>

<svg width="24" height="24" fill="none" xmlns="http://www.w3.org/2000/svg"><g clip-path="url(#a)"><path d="m12 20.9 4.95-4.95a7 7 0 1 0-9.9 0L12 20.9Zm0 2.828-6.364-6.364a9 9 0 1 1 12.728 0L12 23.728ZM11 10V7h2v3h3v2h-3v3h-2v-3H8v-2h3Z" /></g><defs><clipPath id="a"><path fill="#fff" d="M0 0h24v24H0z"/></clipPath></defs></svg>
